X:58
T: Graserin und Reiter
N: Q0149F
O: Mitteleuropa, Schweiz
R: Ballade, Verfuehrung, Verlassen des Elternhauses
M: 4/4
L: 1/8
K: G
D2 | G3GG2A2 | B4G2
G2 | B2G2c2B2 | A4z2
A2 | e3Bc2A2 | d4B2
B2 | c3AG2F2 | G4z2
A2 | e3Bc2A2 | d4B2
B2 | c3AG2F2 | G4z2

